X:1
T:James Gibb editions
T:Psalm 122 (Becker) - Schütz
%%score [ ( 1 2 ) ( 3 4 ) ]
L:1/8
Q:1/4=98
M:3/4
K:C
V:1 treble nm="Soprano Alto"
V:2 treble 
V:3 bass nm="Tenor Bass"
V:4 bass 
V:1
"^Cornelius Becker\n(1561-1604)""^Psalm 122, SWV 227""^Heinrich Schütz\n(1585-1672)" d2 B2 A2 | %1
w: ~Es ist ein|
w: wir sol- len|
 B6 | d2 c2 B2 | A6 | G2 B2 c2 | (d3 e f2) | d2 e4 | d6 :| D2 A2 B2 | c6 | A2 c2 B2 | A6 | %12
w: Freud|dem Her- zen|mein|daß mir Gott|hat * ver\-|* hei-|ßen,|||||
w: gehn|zum Hau- se|sein|ihm Ehr und|Dienst * be\-|* wei-|sen,|||||
 c2 d2 e2 | f6 | e2 d2 d2 | c4 e2 | d4 c2 | (B3 A G2) | c2 A4 | G12 |] %20
w: ||||||||
w: ||||||||
V:2
 D2 G2 ^F2 | G6 | G2 E2 G2 | ^F6 | E2 G2 E2 | D4 A2- | A2 A4 | A6 :| A,2 A,2 D2 | (E4 F2) | %10
w: ||||||||da wer- den|uns\- *|
 C2 E2 E2 | E6 | E2 G2 G2 | (F3 G A2) | G2 G2 G2 | E4 G2 | G4 E2 | (G3 F/E/ D2) | E2 D4 | D12 |] %20
w: re Fü- ße|stehn|in dei- nen|Tor'n, * *|Je- ru- sa-|lem, wenn|wir Gott|wer\- * * *|den prei-|sen.|
V:3
 B,2 D2 D2 | D6 | B,2 C2 D2 | D6 | B,2 G,2 G,2 | (B,3 C D2) | D2 ^C4 | D6 :| F,2 E,2 D,2 | %9
"^2. Jerusalem wünscht Glück und Heil, der Herr wohnt bei dir drinnen,\nder Segen Gottes wird zuteil allen, die ihr Guts gönnen,\nder Friede Gottes sei mit dir in deinen Mauern für und für\nund Glück in dein'n Palästen.\n\n5. Allen, die unsre Brüder seind am Glauben, wünsch ich Friede!\nAch, daß all unsre lieben Freund empfinden Gottes Güte!\nDie liebe Kirche ist die Stadt, darinnen Gott sein Wohnung hat,\ndrum ich ihr Bestes suche." A,6 | %10
 A,2 A,2 ^G,2 | A,6 | A,2 B,2 C2 | (D3 C/B,/ A,2) | C2 C2 B,2 | C4 C2 | B,4 A,2 | (G,3 A, B,2) | %18
 G,2 ^F,4 | G,12 |] %20
V:4
 G,2 G,2 D,2 | G,6 | G,2 A,2 G,2 | D,6 | E,2 E,2 C,2 | G,4 D,2- | D,2 A,4 | D,6 :| D,2 C,2 B,,2 | %9
 (A,,3 G,, F,,2) | F,2 C,2 E,2 | A,,6 | A,2 =G,2 E,2 | (D,3 E, F,2) | C,2 G,2 G,2 | C,4 C,2 | %16
 G,,4 A,,2 | (E,3 F, G,2) | C,2 D,4 | G,,12 |] %20

